X: 3
T: Jenny's Chickens
R: reel
M: 4/4
L: 1/8
K: Bdor
|: f2 fg fece | fefa eAce | f2 fg fece | fgaf eAce :| |: fBBA B2 ce | fB ~B2 eAce | fBBA B2 ce |[1 fgaf eAce :|[2 fgaf eAcA || |: ~B2 bB aBgB | B2 af eAcA | B2 bB aBgB |[1 fgaf eAcA :|[2 fgaf eAce |]


Tune 756	Setting 27147

